X: 21
T:I Lie With My Mammy Nae Mare. JMT.021
M:6/8
L:1/8
Q:120
S:J.Moore,Tyneside,1841.(14b)
R:Jig
O:England
A:Northumbria
H:184
Z:vmp.Chris Partington
K:Bb
F/E/|DFFF2E|DFFF2F|GAGG2F|Bcd dcB|!
def gab|fdfB2c|dgfd2c|BGGG2:|!
|:e|dfff2e|dfff2e|dff fdB|Bgg gfe|!
def fab|fdfB2c|dgf edc|BGGG2:||
